src/assets/svg/icons/fa/nuevos/classic/duotone/sliders-simple classic duotone.svg

<svg xmlns="http://www.w3.org/2000/svg" viewBox="0 0 512 512"><!--! Font Awesome Pro 6.4.0 by @fontawesome - https://fontawesome.com License - https://fontawesome.com/license (Commercial License) Copyright 2023 Fonticons, Inc. --><defs><style>.fa-secondary{opacity:.4}</style></defs><path class="fa-primary" d="M416 192a32 32 0 1 1 0-64 32 32 0 1 1 0 64zm0-128a96 96 0 1 0 0 192 96 96 0 1 0 0-192zM96 384a32 32 0 1 1 0-64 32 32 0 1 1 0 64zm0-128a96 96 0 1 0 0 192 96 96 0 1 0 0-192z"/><path class="fa-secondary" d="M325.5 192L32 192c-17.7 0-32-14.3-32-32s14.3-32 32-32H325.5c-3.5 10-5.5 20.8-5.5 32s1.9 22 5.5 32zM186.5 384c3.5-10 5.5-20.8 5.5-32s-1.9-22-5.5-32H480c17.7 0 32 14.3 32 32s-14.3 32-32 32H186.5z"/></svg>

<svg xmlns="http://www.w3.org/2000/svg" viewBox="0 0 512 512"><defs><style>.fa-secondary{opacity:.4}</style></defs><path class="fa-primary" d="M512 160C512 213 469 256 416 256C362.1 256 320 213 320 160C320 106.1 362.1 64 416 64C469 64 512 106.1 512 160zM416 128C398.3 128 384 142.3 384 160C384 177.7 398.3 192 416 192C433.7 192 448 177.7 448 160C448 142.3 433.7 128 416 128zM96 256C149 256 192 298.1 192 352C192 405 149 448 96 448C42.98 448 0 405 0 352C0 298.1 42.98 256 96 256zM64 352C64 369.7 78.33 384 96 384C113.7 384 128 369.7 128 352C128 334.3 113.7 320 96 320C78.33 320 64 334.3 64 352z"/><path class="fa-secondary" d="M325.5 192H32C14.33 192 0 177.7 0 160C0 142.3 14.33 128 32 128H325.5C321.9 138 320 148.8 320 160C320 171.2 321.9 181.1 325.5 192zM192 352C192 340.8 190.1 330 186.5 320H480C497.7 320 512 334.3 512 352C512 369.7 497.7 384 480 384H186.5C190.1 373.1 192 363.2 192 352z"/></svg>
